X: 11383
M: C
L: 1/8
K: Eb
(eg)fd (eB)cA | F2B>A G2zB, |\
E2EE B2BB | e2 (e/d/)(e/f/) {d}d2zB |\
(=Acf)e (ed)Bd | (Gc) F>E D2zF |
(ed)c=B (cG)ed | (d/c/e/g/) B=A B2BB |\
f2d>c =B2BB | c2CC G3d |\
e2dc (Bd)gc |
(ed)f=B Hc2 de |\
(BG)FE (GB) c_d | c2cf {e}d2zB |\
e2eg (Be) GB | E2EG HB,2 zB |\
(cA)f>e e/(d/c/B/) eG | A3/B//c// BD E3 |]


